icons/outline/topology-star.svg

<!--
tags: [hierarchy, network, structure, connection]
category: Computers
unicode: "f5e5"
version: "1.112"
-->
<svg
  xmlns="http://www.w3.org/2000/svg"
  width="24"
  height="24"
  viewBox="0 0 24 24"
  fill="none"
  stroke="currentColor"
  stroke-width="2"
  stroke-linecap="round"
  stroke-linejoin="round"
>
  <path d="M8 18a2 2 0 1 0 -4 0a2 2 0 0 0 4 0zm12 -12a2 2 0 1 0 -4 0a2 2 0 0 0 4 0zm-12 0a2 2 0 1 0 -4 0a2 2 0 0 0 4 0zm12 12a2 2 0 1 0 -4 0a2 2 0 0 0 4 0zm-6 -6a2 2 0 1 0 -4 0a2 2 0 0 0 4 0zm-6.5 -4.5l3 3m-3 6l3 -3m3 0l3 3m0 -9l-3 3" />
</svg>

<!--
tags: [hierarchy, network, structure, connection]
category: Computers
unicode: "f5e5"
version: "1.112"
-->
<svg
  xmlns="http://www.w3.org/2000/svg"
  width="24"
  height="24"
  viewBox="0 0 24 24"
  fill="none"
  stroke="currentColor"
  stroke-width="2"
  stroke-linecap="round"
  stroke-linejoin="round"
>
    <path d="M8 18a2 2 0 1 0 -4 0a2 2 0 0 0 4 0zM20 6a2 2 0 1 0 -4 0a2 2 0 0 0 4 0zM8 6a2 2 0 1 0 -4 0a2 2 0 0 0 4 0zM20 18a2 2 0 1 0 -4 0a2 2 0 0 0 4 0zM14 12a2 2 0 1 0 -4 0a2 2 0 0 0 4 0zM7.5 7.5l3 3M7.5 16.5l3 -3M13.5 13.5l3 3M16.5 7.5l-3 3" />
</svg>
